X: 7
T: Jackie Coleman's
R: reel
M: 4/4
L: 1/8
K: Dmaj
|:AF F2 EFDE|F2 AF BFAF|E2 BE d3B|ABde fedB|
AF F2 EFDE|F2 AF BFAF|E2 BE d3B|ABde fd d2:|
|:fddc dfag|fd d2 fagf|eA A2 eAfA|eA A2 efge|
fddc dfag|fddc dfaf|g3f gbag|fdec d2 d2:|


Tune 50	Setting 12483

